Sources/FrostedUI/Resources/Icons.xcassets/discordFilledSize20.imageset/discord-filled-size-20.svg

<svg
  width="20"
  height="20"
  viewBox="0 0 20 20"
  fill="none"
  xmlns="http://www.w3.org/2000/svg"
  data-fui-icon="true"
>
  <path
    d="M16.3634 4.18566C15.1589 3.63129 13.8873 3.238 12.5811 3.01584C12.4023 3.33705 12.2406 3.66753 12.0966 4.00591C10.7052 3.79514 9.29032 3.79514 7.89899 4.00591C7.75487 3.66757 7.59315 3.33709 7.41448 3.01584C6.10746 3.23987 4.83502 3.6341 3.6293 4.18856C1.23561 7.74875 0.586723 11.2205 0.911165 14.643C2.31296 15.6842 3.88198 16.476 5.55001 16.9841C5.9256 16.4762 6.25795 15.9376 6.54353 15.3736C6.00111 15.1699 5.47757 14.9187 4.97898 14.6227C5.11021 14.5271 5.23854 14.4285 5.36255 14.3328C6.81332 15.0187 8.39673 15.3742 9.99998 15.3742C11.6031 15.3742 13.1866 15.0187 14.6373 14.3328C14.7628 14.4357 14.8911 14.5343 15.0209 14.6227C14.5214 14.9192 13.9969 15.1709 13.4535 15.3751C13.7387 15.9387 14.0711 16.477 14.447 16.9841C16.1165 16.4781 17.6866 15.6866 19.0887 14.6445C19.4694 10.6755 18.4384 7.2356 16.3634 4.18566ZM6.95449 12.5382C6.05037 12.5382 5.30343 11.7134 5.30343 10.6987C5.30343 9.68399 6.02442 8.85191 6.95161 8.85191C7.8788 8.85191 8.61998 9.68399 8.60415 10.6987C8.58823 11.7134 7.87592 12.5382 6.95449 12.5382ZM13.0454 12.5382C12.1398 12.5382 11.3958 11.7134 11.3958 10.6987C11.3958 9.68399 12.1167 8.85191 13.0454 8.85191C13.9741 8.85191 14.7095 9.68399 14.6936 10.6987C14.6777 11.7134 13.9668 12.5382 13.0454 12.5382Z"
    fill="currentColor"
  />
</svg>

<svg xmlns="http://www.w3.org/2000/svg" width="20" height="20" fill="none" data-fui-icon="true" viewBox="0 0 20 20"><path fill="currentColor" d="M16.363 4.186a15 15 0 0 0-3.782-1.17q-.268.482-.484.99a14 14 0 0 0-4.198 0 11 11 0 0 0-.485-.99A15.2 15.2 0 0 0 3.63 4.189C1.236 7.749.587 11.22.911 14.643a15.2 15.2 0 0 0 4.639 2.341q.565-.763.994-1.61a10 10 0 0 1-1.565-.751q.197-.145.384-.29a10.85 10.85 0 0 0 9.274 0q.189.156.384.29-.751.445-1.568.752.43.847.994 1.61a15.2 15.2 0 0 0 4.642-2.34c.38-3.97-.65-7.41-2.726-10.46m-9.409 8.352c-.904 0-1.65-.825-1.65-1.84 0-1.014.72-1.846 1.648-1.846s1.668.832 1.652 1.847c-.016 1.014-.728 1.84-1.65 1.84m6.091 0c-.905 0-1.65-.825-1.65-1.84 0-1.014.722-1.846 1.65-1.846.93 0 1.665.832 1.649 1.847-.016 1.014-.727 1.84-1.649 1.84"/></svg>
